X:1
T:Papillon, CMD
T:Papillon, CMD
T:Charles Otto Arnold, 1916
T:Public Domain Courtesy of the Cyber Hymnal™
C:Charles Otto Arnold, 1916
Z:Public Domain
Z:Courtesy of the Cyber Hymnal™
%%score 1 ( 2 3 ) ( 4 5 )
L:1/8
Q:1/4=87
M:3/8
K:G
V:1 treble 
V:2 treble 
V:3 treble 
V:4 bass 
V:5 bass 
V:1
 !fermata!z2 D | (DE)F | G2 D | (DE)F | G2 B | A2 G | F2 E | D2 D | (cB)A | (A^G)A | B2 A | G2 B | %12
 (BA)c | G2 F | G z D | (E^D)E | (F^E)F | (GF)G | (A^G)A | (B^A)B | (^cf)e | d z B | A2 G | F2 B | %24
 A2 G | F2 F | (GA)c | B2 A | G2 z |] %29
V:2
 !fermata![DG]2 [B,D] | ([B,D][CE])[A,CDF] | [B,DG]2 [B,D] | ([B,D][CE])[A,CDF] | [B,DG]2 [DB] | %5
 A2 [EG] | [DF]2 [CE] | D2 D | ([DFA][DGB])[DFAc] | ([DFAc][D^GB])[DFAc] | [DGBd]2 [DFAc] | %11
 [DGB]2 z | (BA)[Ec] | [DG]2 [DF] | [DG] z2 | .[CE]2 z | .[B,^DF]2 z | .[B,EG]2 z | .[EA]2 z | %19
 (B^A)[GB] | (cf)[GAce] | [FAd] z [DB] | [FA]2 [EG] | [^DF]2 [=DB] | [FA]2 [EG] | [^DF]2 [C=DF] | %26
 ([B,G][EA])[Ec] | [DB]2 [FA] | G2 z |] %29
V:3
 x3 | x3 | x3 | x3 | x3 | (DF) x | x3 | x3 | x3 | x3 | x3 | x3 | [CE]2 x | x3 | x3 | x3 | x3 | x3 | %18
 x3 | F2 x | [GA]2 x | x3 | x3 | x3 | x3 | x3 | x3 | x3 | x3 |] %29
V:4
 !fermata![G,,B,]2 [G,,G,] | [G,,G,]3 | [G,,G,]3 | [G,,G,]3 | [G,,G,]2 G, | A,2 [E,B,] | %6
 A,2 [A,,G,] | [D,F,]2 z | D,3 | D,3 | [G,,G,]3 | [G,,G,]2 z | [C,E,A,]3 | [D,G,B,]2 [D,A,C] | %14
 [G,,G,B,] z2 | .[C,G,]2 z | .[B,,^D,F,B,]2 z | .[E,B,]2 z | .[C,E,A,C]2 z | %19
 [B,,^D,F,B,]2 [E,G,B,] | A,2 [A,,A,] | [D,A,] z G, | B,2 [E,B,] | [B,,B,]2 G, | B,2 [E,B,] | %25
 [B,,B,]2 [D,A,] | G,2 [A,,A,] | (G,B,)[D,C] | [G,B,]2 z |] %29
V:5
 x3 | x3 | x3 | x3 | x3 | (.F,^D,) x | A,A,, x | x3 | x3 | x3 | x3 | x3 | x3 | x3 | x3 | x3 | x3 | %17
 x3 | x3 | x3 | x3 | x3 | (F,^D,) x | x3 | (F,^D,) x | x3 | (E,C,) x | D,2 x | x3 |] %29

